X: 26
T: Se la face ay pale
N: Derived from Duf3015-Se_la_face_ay_pale.krn
C: Guillaume Du Fay
%%abc-version 2.0
%%abcx-abcm2ps-target-version 5.9.1 (29 Sep 2008)
%%abc-creator hum2abc beta
%%abcx-conversion-date 2019/02/16 20:31:47
%%abc-edited-by Alejandro Planchart
%%abc-edited-by Alejandro Planchart
%%abcx-initial-encoding-date 2012/12/20/
%%humdrum-veritas 2519516678
%%humdrum-veritas-data 2609076738
%%linebreak <none>
%%barnumbers 0
L: 1/4
M: 3/1
Q: 1/2=120
V: 1 clef=treble
V: 2 clef=treble-8
V: 3 clef=treble-8
K: C
[V:1] c8c4 | 
[V:2] c8c4 | 
[V:3] C8C4 | 
[V:1] d8e4 | 
[V:2] B8A4 | 
[V:3] G8c4 | 
[V:1] e2d2c2B4A2 | 
[V:2] c2d2e4f4 | 
[V:3] z4g4d4 | 
[V:1] B8z4 | 
[V:2] e4d8 | 
[V:3] g6^f6 | 
[V:1] c2c2B2A4F2 | 
[V:2] c4G2A4B2 | 
[V:3] g2e4c2d4 | 
[V:1] E8z4 | 
[V:2] c8z4 | 
[V:3] c4C8 | 
[V:1] d8d4 | 
[V:2] g8g4 | 
[V:3] z4G8 | 
[V:1] e8d4 | 
[V:2] c8B4 | 
[V:3] z2g2e2c2z2G2 | 
[V:1] c2B2G2c2B2A2 | 
[V:2] c2d2e2f2d4 | 
[V:3] A2B2c4G4 | 
[V:1] c8z4 | 
[V:2] c8z4 | 
[V:3] C4z4z4 | 
[V:1] F4F2F4F2 | 
[V:2] a4a2a4a2 | 
[V:3] d8d4 | 
[V:1] C12 | 
[V:2] g8z2c2 | 
[V:3] e8g4- | 
[V:1] z2C2D2E2F4 | 
[V:2] d2e2f4d4 | 
[V:3] g4d8 | 
[V:1] z2c4A2F4 | 
[V:2] c4z4d4 | 
[V:3] _e4c4B4 | 
[V:1] G2G2G2G2C4 | 
[V:2] c4G4g2g2 | 
[V:3] _e4d4z4 | 
[V:1] z4c4B4 | 
[V:2] g2g2c4z2d2 | 
[V:3] c4g2g4f2 | 
[V:1] A4G2^F4E2 | 
[V:2] c4_B4A4 | 
[V:3] e4d4^c4 | 
[V:1] G4z4z4 | 
[V:2] G4z4z4 | 
[V:3] d8g4 | 
[V:1] e8d4 | 
[V:2] c8B4 | 
[V:3] e4c4G4 | 
[V:1] c4B4A4 | 
[V:2] c8d4 | 
[V:3] z2g4e2f2e2 | 
[V:1] G4c2c2c2A2 | 
[V:2] e4c4z4 | 
[V:3] c4g2e2c4 | 
[V:1] B8z4 | 
[V:2] g2g2e2f2g4 | 
[V:3] G4z4G4 | 
[V:1] c8A2G2 | 
[V:2] z4c4d2e2 | 
[V:3] c4z2C2F2E2 | 
[V:1] F4E4D4 | 
[V:2] f2e2c2G2A2B2 | 
[V:3] D4C4F4 | 
[V:1] C4z2G2E2C2 | 
[V:2] c2e4c2g2e2 | 
[V:3] C8z2g2 | 
[V:1] z2G2E2G2z2c2 | 
[V:2] c2z2g2e2g2f2 | 
[V:3] e2c2z2g2e4 | 
[V:1] B2A2(3c2z2C2E2F2 | 
[V:2] d4c4z2d2 | 
[V:3] f4z2g4f2 | 
[V:1] G2A2E2D2E2F2 | 
[V:2] c2A4B2c2A2 | 
[V:3] e4c2f2e2c2 | 
[V:1] G2C2c2G2A2B2 | 
[V:2] G2c4e2d4 | 
[V:3] d2e2c4G4 | 
[V:1] c12 |]  
[V:2] c12 |]  
[V:3] C12 |]  



